public/assets/standards/sci-ai/explore-decor.svg

<svg width="54" height="111" viewBox="0 0 54 111" fill="none" xmlns="http://www.w3.org/2000/svg">
<path d="M26.3778 74.0439H34.0426C37.864 74.0331 41.5931 72.8493 44.7413 70.6473C47.8896 68.4454 50.3102 65.3281 51.6861 61.7038C52.8742 58.4979 53.0152 54.9883 52.0881 51.6946L40.0857 7.7848C37.3106 -2.35943 23.1622 -2.36299 20.3836 7.7848C15.5568 25.4049 10.356 44.3574 8.33932 51.6911C7.40747 54.9899 7.54721 58.5063 8.73777 61.718C10.1157 65.3391 12.5367 68.453 15.6841 70.6522C18.8315 72.8514 22.5586 74.0335 26.3778 74.0439Z" fill="#006D69"/>
<path fill-rule="evenodd" clip-rule="evenodd" d="M40.078 8.0536C40.078 8.05362 40.078 8.05358 40.078 8.0536L52.3719 51.6624L52.3724 51.6643C53.3068 54.8828 53.1648 58.3124 51.9676 61.4452C50.5768 64.9966 48.1304 68.0512 44.9486 70.2089C41.7664 72.3669 37.9973 73.5271 34.1348 73.5377H26.2851C22.4249 73.5275 18.6577 72.369 15.4765 70.2137C12.2956 68.0586 9.84866 65.0074 8.45588 61.4591C7.25623 58.3207 7.11551 54.8845 8.05465 51.661L8.05514 51.6593C10.1209 44.3757 15.448 25.553 20.3921 8.05368C23.1684 -1.77754 37.3051 -1.77401 40.078 8.0536ZM40.5728 7.91796C37.6606 -2.40382 22.8132 -2.40735 19.8973 7.9179C14.9534 25.4165 9.62653 44.2383 7.56072 51.5222C6.59129 54.8505 6.7368 58.3983 7.97565 61.6386L7.97645 61.6407C9.40647 65.2845 11.9191 68.4179 15.1856 70.6309C18.452 72.8439 22.3201 74.0335 26.2838 74.0439H34.1362C38.1022 74.0331 41.9723 72.8418 45.2397 70.626C48.507 68.4103 51.0192 65.2734 52.4472 61.6264L52.4479 61.6245C53.6842 58.39 53.831 54.849 52.8664 51.5259C52.8664 51.5256 52.8663 51.5253 52.8662 51.525L40.5728 7.91796Z" fill="#006D69"/>
<path fill-rule="evenodd" clip-rule="evenodd" d="M39.7973 28.2907C39.2434 28.1971 38.7211 28.5872 38.6309 29.1621C38.3053 31.2371 37.2799 33.1246 35.7376 34.488C34.1958 35.8509 32.2378 36.6014 30.2124 36.6056C28.1871 36.6014 26.229 35.8509 24.6872 34.488C23.145 33.1246 22.1196 31.2371 21.794 29.1621C21.7037 28.5872 21.1815 28.1971 20.6275 28.2907C20.0736 28.3843 19.6976 28.9263 19.7878 29.5011C20.1909 32.0696 21.4602 34.406 23.3692 36.0936C25.2782 37.7811 27.7028 38.7101 30.2106 38.7148H30.2143C32.722 38.7101 35.1467 37.7811 37.0557 36.0936C38.9647 34.406 40.2339 32.0696 40.637 29.5011C40.7272 28.9263 40.3513 28.3843 39.7973 28.2907Z" fill="#AECC53"/>
<path d="M22.1747 29.7371C22.1459 29.4208 22.024 29.1201 21.8243 28.8731C21.6246 28.6261 21.3561 28.4438 21.0529 28.3494C20.7496 28.255 20.4252 28.2527 20.1206 28.3427C19.816 28.4327 19.5449 28.6111 19.3417 28.8552C19.1385 29.0993 19.0122 29.3982 18.9788 29.714C18.9455 30.0299 19.0066 30.3486 19.1543 30.6298C19.3021 30.911 19.5299 31.142 19.809 31.2937C20.0881 31.4453 20.4058 31.5108 20.7221 31.4818C20.9322 31.4631 21.1365 31.403 21.3233 31.3051C21.5101 31.2071 21.6758 31.0733 21.8107 30.9112C21.9457 30.7491 22.0473 30.5619 22.1098 30.3605C22.1722 30.159 22.1943 29.9472 22.1747 29.7371Z" fill="#AECC53"/>
<path d="M38.2484 29.7371C38.2772 29.4208 38.3991 29.1201 38.5988 28.8731C38.7985 28.6261 39.0669 28.4438 39.3702 28.3494C39.6735 28.255 39.9979 28.2527 40.3025 28.3427C40.6071 28.4327 40.8781 28.6111 41.0814 28.8552C41.2846 29.0993 41.4109 29.3982 41.4442 29.714C41.4776 30.0299 41.4165 30.3486 41.2688 30.6298C41.121 30.911 40.8932 31.142 40.6141 31.2937C40.335 31.4453 40.0173 31.5108 39.701 31.4818C39.4909 31.4631 39.2866 31.403 39.0998 31.3051C38.913 31.2071 38.7473 31.0733 38.6124 30.9112C38.4774 30.7491 38.3758 30.5619 38.3133 30.3605C38.2509 30.159 38.2288 29.9472 38.2484 29.7371Z" fill="#AECC53"/>
<path fill-rule="evenodd" clip-rule="evenodd" d="M44.5544 41.9338C43.9915 41.8696 43.4847 42.2869 43.4223 42.8659C43.0612 46.2148 41.5148 49.31 39.0778 51.5613C36.6415 53.8119 33.4855 55.0619 30.2111 55.0732C26.9366 55.0626 23.7804 53.8129 21.3441 51.5622C18.9069 49.3108 17.3607 46.2153 17.0004 42.8661C16.9381 42.2871 16.4314 41.8697 15.8685 41.9337C15.3057 41.9978 14.8999 42.5191 14.9622 43.0981C15.3779 46.9624 17.1619 50.534 19.9739 53.1318C22.7858 55.7295 26.429 57.1715 30.2084 57.1827L30.2113 56.128L30.2145 57.1827C33.9936 57.1706 37.6362 55.7283 40.448 53.1308C43.2597 50.5333 45.0439 46.9622 45.4605 43.0984C45.5229 42.5194 45.1172 41.998 44.5544 41.9338Z" fill="#AECC53"/>
<path d="M17.3624 43.4342C17.3429 43.1175 17.2299 42.8136 17.0378 42.561C16.8457 42.3084 16.583 42.1184 16.2829 42.0149C15.9829 41.9115 15.6589 41.8993 15.3519 41.9798C15.0449 42.0604 14.7687 42.2301 14.5581 42.4675C14.3475 42.7049 14.212 42.9994 14.1686 43.3138C14.1253 43.6282 14.176 43.9483 14.3145 44.2339C14.4531 44.5194 14.6731 44.7575 14.9468 44.9181C15.2206 45.0787 15.5358 45.1546 15.8526 45.1362C16.2785 45.1105 16.6767 44.9168 16.9598 44.5977C17.2429 44.2786 17.3877 43.8601 17.3624 43.4342Z" fill="#AECC53"/>
<path d="M42.258 43.434C42.2776 43.1171 42.3906 42.8132 42.583 42.5605C42.7753 42.3079 43.0381 42.1179 43.3384 42.0146C43.6386 41.9113 43.9628 41.8993 44.2698 41.9802C44.5769 42.0611 44.8531 42.2311 45.0635 42.4689C45.2739 42.7066 45.4091 43.0015 45.4521 43.316C45.495 43.6306 45.4437 43.9509 45.3046 44.2363C45.1656 44.5218 44.945 44.7596 44.6708 44.9197C44.3967 45.0798 44.0812 45.1551 43.7642 45.136C43.339 45.1094 42.9417 44.9153 42.6593 44.5963C42.377 44.2773 42.2326 43.8593 42.258 43.434Z" fill="#AECC53"/>
<path fill-rule="evenodd" clip-rule="evenodd" d="M30.2127 16.2339C29.7693 16.2339 29.4098 16.6849 29.4098 17.2412V109.168C29.4098 109.725 29.7693 110.175 30.2127 110.175C30.6561 110.175 31.0156 109.725 31.0156 109.168V17.2412C31.0156 16.6849 30.6561 16.2339 30.2127 16.2339Z" fill="#AECC53"/>
<path d="M30.2125 18.6428C29.3256 18.6428 28.6067 17.9239 28.6067 17.037C28.6067 16.1501 29.3256 15.4312 30.2125 15.4312C31.0994 15.4312 31.8184 16.1501 31.8184 17.037C31.8184 17.9239 31.0994 18.6428 30.2125 18.6428Z" fill="#AECC53"/>
<g style="mix-blend-mode:multiply">
<path d="M8.93248 85.9051C9.35832 85.9051 9.76672 85.7349 10.0678 85.4318C10.3689 85.1287 10.5381 84.7176 10.5381 84.2889C10.5381 83.8603 10.3689 83.4492 10.0678 83.1461C9.76672 82.843 9.35832 82.6728 8.93248 82.6728H0.709328C0.573664 81.9173 0.504896 81.1512 0.503836 80.3834C0.516752 79.7035 0.599623 79.0268 0.751122 78.3641H8.93248C9.34584 78.3447 9.73588 78.1658 10.0216 77.8645C10.3073 77.5632 10.4667 77.1627 10.4667 76.7461C10.4667 76.3296 10.3073 75.9291 10.0216 75.6278C9.73588 75.3265 9.34584 75.1475 8.93248 75.1282H1.695C2.17216 73.7784 2.76773 72.3235 3.43645 70.8195H8.93248C9.35832 70.8195 9.76672 70.6492 10.0678 70.3461C10.3689 70.043 10.5381 69.6319 10.5381 69.2033C10.5381 68.7747 10.3689 68.3636 10.0678 68.0605C9.76672 67.7574 9.35832 67.5871 8.93248 67.5871H4.95152C5.6481 66.1322 6.40737 64.6773 7.14923 63.2749H8.93248C9.35832 63.2749 9.76672 63.1047 10.0678 62.8016C10.3689 62.4985 10.5381 62.0874 10.5381 61.6587C10.5381 61.2301 10.3689 60.819 10.0678 60.5159C9.76672 60.2128 9.35832 60.0425 8.93248 60.0425H8.89765C11.3357 55.6427 13.3488 52.3647 13.3488 52.3647C13.3488 52.3647 15.3654 55.6427 17.8 60.0425H17.7651C17.3393 60.0425 16.9309 60.2128 16.6298 60.5159C16.3287 60.819 16.1595 61.2301 16.1595 61.6587C16.1595 62.0874 16.3287 62.4985 16.6298 62.8016C16.9309 63.1047 17.3393 63.2749 17.7651 63.2749H19.5519C20.2937 64.6773 21.0391 66.1322 21.7461 67.5871H17.7651C17.3393 67.5871 16.9309 67.7574 16.6298 68.0605C16.3287 68.3636 16.1595 68.7747 16.1595 69.2033C16.1595 69.6319 16.3287 70.043 16.6298 70.3461C16.9309 70.6492 17.3393 70.8195 17.7651 70.8195H23.2647C23.9334 72.32 24.5289 73.7784 25.0061 75.1282H17.7651C17.3518 75.1475 16.9617 75.3265 16.676 75.6278C16.3903 75.9291 16.2309 76.3296 16.2309 76.7461C16.2309 77.1627 16.3903 77.5632 16.676 77.8645C16.9617 78.1658 17.3518 78.3447 17.7651 78.3641H25.95C26.0997 79.0271 26.1826 79.7036 26.1973 80.3834C26.1962 81.1512 26.1274 81.9173 25.9918 82.6728H17.7651C17.3393 82.6728 16.9309 82.843 16.6298 83.1461C16.3287 83.4492 16.1595 83.8603 16.1595 84.2889C16.1595 84.7176 16.3287 85.1287 16.6298 85.4318C16.9309 85.7349 17.3393 85.9051 17.7651 85.9051H24.9678C23.9277 88.1211 22.2836 89.994 20.2268 91.3056C18.17 92.6173 15.7853 93.3137 13.3506 93.3137C10.9158 93.3137 8.53107 92.6173 6.4743 91.3056C4.41754 89.994 2.77336 88.1211 1.7333 85.9051H8.93248Z" fill="#AECC53"/>
</g>
<path fill-rule="evenodd" clip-rule="evenodd" d="M13.7528 54.7739C13.5311 54.7739 13.3514 54.9439 13.3514 55.1537V108.993C13.3514 109.202 13.5311 109.372 13.7528 109.372C13.9746 109.372 14.1543 109.202 14.1543 108.993V55.1537C14.1543 54.9439 13.9746 54.7739 13.7528 54.7739Z" fill="#006D69"/>
</svg>

<svg xmlns="http://www.w3.org/2000/svg" width="54" height="111" fill="none" viewBox="0 0 54 111"><path fill="#006d69" d="M26.378 74.044h7.665a18.75 18.75 0 0 0 10.698-3.397 19.24 19.24 0 0 0 6.945-8.943 16.2 16.2 0 0 0 .402-10.01L40.086 7.785c-2.775-10.143-16.924-10.147-19.702 0A59742 59742 0 0 1 8.339 51.692a16.2 16.2 0 0 0 .399 10.027 19.23 19.23 0 0 0 6.946 8.934 18.75 18.75 0 0 0 10.694 3.392"/><path fill="#006d69" fill-rule="evenodd" d="m40.078 8.054 12.294 43.608v.002a15.37 15.37 0 0 1-.404 9.781 18.95 18.95 0 0 1-7.02 8.764 19.37 19.37 0 0 1-10.813 3.329h-7.85a19.37 19.37 0 0 1-10.808-3.324 18.95 18.95 0 0 1-7.021-8.755 15.38 15.38 0 0 1-.401-9.798v-.002c2.066-7.283 7.393-26.106 12.337-43.605 2.776-9.832 16.913-9.828 19.686 0m.495-.136c-2.912-10.322-17.76-10.325-20.676 0A58106 58106 0 0 1 7.561 51.522a15.88 15.88 0 0 0 .415 10.117v.002a19.45 19.45 0 0 0 7.21 8.99 19.9 19.9 0 0 0 11.098 3.413h7.852a19.9 19.9 0 0 0 11.104-3.418 19.45 19.45 0 0 0 7.207-9v-.002a15.87 15.87 0 0 0 .42-10.099z" clip-rule="evenodd"/><path fill="#aecc53" fill-rule="evenodd" d="M39.797 28.29c-.554-.093-1.076.297-1.166.872a8.96 8.96 0 0 1-2.893 5.326 8.37 8.37 0 0 1-5.526 2.118 8.37 8.37 0 0 1-5.525-2.118 8.96 8.96 0 0 1-2.893-5.326c-.09-.575-.613-.965-1.166-.871-.554.093-.93.635-.84 1.21.403 2.569 1.672 4.905 3.581 6.593a10.35 10.35 0 0 0 6.842 2.62h.003a10.36 10.36 0 0 0 6.842-2.62c1.909-1.688 3.178-4.024 3.581-6.593.09-.575-.286-1.117-.84-1.21" clip-rule="evenodd"/><path fill="#aecc53" d="M22.175 29.737a1.606 1.606 0 1 0-3.199.291 1.606 1.606 0 0 0 3.199-.29m16.073-.001a1.606 1.606 0 1 1 3.199.291 1.606 1.606 0 0 1-3.199-.29"/><path fill="#aecc53" fill-rule="evenodd" d="M44.554 41.934a1.033 1.033 0 0 0-1.132.932c-.36 3.349-1.907 6.444-4.344 8.695-2.437 2.25-5.593 3.5-8.867 3.512-3.274-.01-6.43-1.26-8.867-3.51-2.437-2.252-3.983-5.348-4.344-8.697-.062-.579-.569-.996-1.132-.932s-.968.585-.906 1.164c.416 3.864 2.2 7.436 5.012 10.034s6.455 4.04 10.234 4.05l.003-1.054.004 1.055c3.779-.012 7.421-1.455 10.233-4.052 2.812-2.598 4.596-6.169 5.013-10.033.062-.579-.344-1.1-.907-1.164" clip-rule="evenodd"/><path fill="#aecc53" d="M17.362 43.434a1.606 1.606 0 1 0-3.205.198 1.606 1.606 0 0 0 3.205-.198m24.896 0a1.605 1.605 0 1 1 3.204.198 1.605 1.605 0 0 1-3.204-.198"/><path fill="#aecc53" fill-rule="evenodd" d="M30.213 16.234c-.444 0-.803.45-.803 1.007v91.927c0 .557.36 1.007.803 1.007s.803-.45.803-1.007V17.241c0-.556-.36-1.007-.803-1.007" clip-rule="evenodd"/><path fill="#aecc53" d="M30.213 18.643a1.606 1.606 0 1 1 0-3.212 1.606 1.606 0 0 1 0 3.212"/><path fill="#aecc53" d="M8.932 85.905a1.6 1.6 0 0 0 1.136-.473 1.62 1.62 0 0 0 0-2.286 1.6 1.6 0 0 0-1.136-.473H.71a13 13 0 0 1-.205-2.29c.013-.68.096-1.356.247-2.019h8.181c.414-.02.804-.198 1.09-.5a1.625 1.625 0 0 0 0-2.236 1.6 1.6 0 0 0-1.09-.5H1.695a60 60 0 0 1 1.741-4.308h5.496a1.6 1.6 0 0 0 1.136-.474 1.62 1.62 0 0 0 0-2.285 1.6 1.6 0 0 0-1.136-.474h-3.98a122 122 0 0 1 2.197-4.312h1.783a1.6 1.6 0 0 0 1.136-.473 1.62 1.62 0 0 0 0-2.286 1.6 1.6 0 0 0-1.136-.474h-.034c2.438-4.4 4.45-7.677 4.45-7.677s2.017 3.278 4.452 7.677h-.035a1.6 1.6 0 0 0-1.135.474 1.62 1.62 0 0 0 0 2.286 1.6 1.6 0 0 0 1.135.473h1.787a142 142 0 0 1 2.194 4.312h-3.98a1.6 1.6 0 0 0-1.136.474 1.62 1.62 0 0 0 0 2.285 1.6 1.6 0 0 0 1.135.474h5.5a59 59 0 0 1 1.741 4.308h-7.24c-.414.02-.804.198-1.09.5a1.625 1.625 0 0 0 0 2.237c.286.3.676.48 1.09.5h8.184c.15.662.233 1.339.247 2.018 0 .768-.07 1.534-.205 2.29h-8.227a1.6 1.6 0 0 0-1.135.473 1.62 1.62 0 0 0 0 2.286 1.6 1.6 0 0 0 1.135.473h7.203a12.9 12.9 0 0 1-4.741 5.4 12.8 12.8 0 0 1-6.876 2.009c-2.435 0-4.82-.697-6.877-2.008a12.9 12.9 0 0 1-4.74-5.4z" style="mix-blend-mode:multiply"/><path fill="#006d69" fill-rule="evenodd" d="M13.753 54.774a.39.39 0 0 0-.402.38v53.839c0 .209.18.379.402.379s.401-.17.401-.379v-53.84c0-.21-.18-.38-.401-.38" clip-rule="evenodd"/></svg>
